**kern	**kern
*part1	*part1
*staff2	*staff1
*I"Piano	*
*clefF4	*clefG2
*k[b-e-]	*k[b-e-]
=1	=1
4FFn 4Fn	2.a
4A 4c 4f	.
4A 4c 4f	.
=	=
4CC 4C	2g
4G 4B- 4c 4en	.
4F 4A 4c	4fn
=	=
4CC 4C	2.en
4G 4B- 4c	.
4G 4B- 4c	.
=	=
4EEn 4En	2.cc
4G 4B- 4c 4en	.
4G 4B- 4c 4e	.
=	=
4CC 4C	2.b-
4B- 4c 4en	.
4B- 4c 4e	.
=	=
4CC 4C	2a
4A 4c 4f	.
4B- 4c 4en	4g
=	=
4FF 4F	4.f
4F 4A 4c	.
.	8fL
4F 4A 4c	8a
.	8ccJ
=	=
4FF 4F	2.ff
4F 4A 4e-X	.
4F 4A 4e-	.
=	=
*-	*-
!!!system-decoration: {(s1,s2)}
